assets/logo.svg

<?xml version="1.0" encoding="UTF-8"?>
<svg version="1.1" viewBox="0 0 64 64" xmlns="http://www.w3.org/2000/svg">
<path d="M 59.958,31.828 A 28,28 0 0 1 32,59 28,28 0 0 1 4.044,32.172 28,28 0 0 0 4,33 28,28 0 0 0 32,61 28,28 0 0 0 60,33 28,28 0 0 0 59.958,31.828 Z" opacity=".2"/>
<path d="m60 32a28 28 0 0 1-28 28 28 28 0 0 1-28-28 28 28 0 0 1 28-28 28 28 0 0 1 28 28z" fill="#f56e2c"/>
<path d="m47.86 31a16 16 0 0 0-5.79-10.398c-0.65 0.242-1.34 0.398-2.07 0.398-2.516 0-4.68-1.588-5.566-3.8046a16 16 0 0 0-2.434-0.1954 16 16 0 0 0-6.208 1.254l3.043 5.2734a10 10 0 0 1 3.164-0.528 10 10 0 0 1 9.789 8h6.0704zm-4e-3 4h-6.0586a10 10 0 0 1-9.7968 8 10 10 0 0 1-3.164-0.52344l-3.0352 5.2578a16 16 0 0 0 6.198 1.266 16 16 0 0 0 2.442-0.21c0.888-2.208 3.048-3.79 5.558-3.79 0.73222 0 1.4268 0.15346 2.0782 0.39844a16 16 0 0 0 5.778-10.398zm-3.856-20a4 4 0 0 0-4-4 4 4 0 0 0-4 4 4 4 0 0 0 4 4 4 4 0 0 0 4-4zm0 36a4 4 0 0 0-4-4 4 4 0 0 0-4 4 4 4 0 0 0 4 4 4 4 0 0 0 4-4zm-18.624-25.472-3.036-5.258a16 16 0 0 0-5.836 8.824c0.9179 1.0553 1.4961 2.4126 1.4961 3.9062 0 1.4918-0.57644 2.8476-1.4922 3.9024a16 16 0 0 0 5.8282 8.836l3.04-5.262a10 10 0 0 1-3.376-7.476 10 10 0 0 1 3.376-7.472zm-9.376 7.472a4 4 0 0 0-4-4 4 4 0 0 0-4 4 4 4 0 0 0 4 4 4 4 0 0 0 4-4z" opacity=".2"/>
<path d="m47.86 30a16 16 0 0 0-5.79-10.398c-0.65 0.2432-1.34 0.3984-2.07 0.3984-2.516 0-4.68-1.589-5.566-3.8046a16 16 0 0 0-2.434-0.1954 16 16 0 0 0-6.208 1.254l3.043 5.2734a10 10 0 0 1 3.164-0.528 10 10 0 0 1 9.789 8h6.0704zm-4e-3 4h-6.0586a10 10 0 0 1-9.7968 8 10 10 0 0 1-3.164-0.52344l-3.0352 5.2578a16 16 0 0 0 6.198 1.266 16 16 0 0 0 2.442-0.21c0.888-2.208 3.048-3.79 5.558-3.79 0.73222 0 1.4268 0.15346 2.0782 0.39844a16 16 0 0 0 5.778-10.398zm-3.856-20a4 4 0 0 0-4-4 4 4 0 0 0-4 4 4 4 0 0 0 4 4 4 4 0 0 0 4-4zm0 36a4 4 0 0 0-4-4 4 4 0 0 0-4 4 4 4 0 0 0 4 4 4 4 0 0 0 4-4zm-18.624-25.472-3.036-5.2584a16 16 0 0 0-5.836 8.8244c0.9179 1.0553 1.4961 2.4126 1.4961 3.9062 0 1.4918-0.57644 2.8476-1.4922 3.9024a16 16 0 0 0 5.8282 8.836l3.04-5.262a10 10 0 0 1-3.376-7.476 10 10 0 0 1 3.376-7.472zm-9.376 7.472a4 4 0 0 0-4-4 4 4 0 0 0-4 4 4 4 0 0 0 4 4 4 4 0 0 0 4-4z" fill="#fff"/>
<path d="m31.998 4a28 28 0 0 0-27.998 28 28 28 0 0 0 0.017578 0.49219 28 28 0 0 1 27.98-27.492h0.001953a28 28 0 0 1 27.973 27.488 28 28 0 0 0 0.025391-0.48828 28 28 0 0 0-27.998-28h-0.001953z" fill="#fff" opacity=".2"/>
</svg>

<svg xmlns="http://www.w3.org/2000/svg" width="64" height="64" version="1.1">
 <path style="opacity:0.2" d="M 59.958,31.828 A 28,28 0 0 1 32,59 28,28 0 0 1 4.044,32.172 28,28 0 0 0 4,33 28,28 0 0 0 32,61 28,28 0 0 0 60,33 28,28 0 0 0 59.958,31.828 Z"/>
 <path style="fill:#f56e2c" d="M 60,32 A 28,28 0 0 1 32,60 28,28 0 0 1 4,32 28,28 0 0 1 32,4 28,28 0 0 1 60,32 Z"/>
 <path style="opacity:0.2" d="M 47.86,31 A 16,16 0 0 0 42.07,20.602 C 41.42,20.844 40.73,21 40,21 37.484,21 35.32,19.412 34.434,17.1954 A 16,16 0 0 0 32,17 16,16 0 0 0 25.792,18.254 l 3.043,5.2734 a 10,10 0 0 1 3.164,-0.528 10,10 0 0 1 9.789,8 l 6.0704,0 z m -0.004,4 -6.0586,0 a 10,10 0 0 1 -9.7968,8 10,10 0 0 1 -3.164,-0.52344 l -3.0352,5.2578 a 16,16 0 0 0 6.198,1.266 16,16 0 0 0 2.442,-0.21 c 0.888,-2.208 3.048,-3.79 5.558,-3.79 0.73222,0 1.42684,0.15346 2.0782,0.39844 a 16,16 0 0 0 5.778,-10.398 z M 44,15 a 4,4 0 0 0 -4,-4 4,4 0 0 0 -4,4 4,4 0 0 0 4,4 4,4 0 0 0 4,-4 z m 0,36 a 4,4 0 0 0 -4,-4 4,4 0 0 0 -4,4 4,4 0 0 0 4,4 4,4 0 0 0 4,-4 z M 25.376,25.528 22.34,20.27 a 16,16 0 0 0 -5.836,8.824 c 0.9179,1.05526 1.4961,2.4126 1.4961,3.9062 0,1.49176 -0.57644,2.8476 -1.49218,3.9024 a 16,16 0 0 0 5.8282,8.836 l 3.04,-5.262 a 10,10 0 0 1 -3.376,-7.476 10,10 0 0 1 3.376,-7.472 z M 16,33 a 4,4 0 0 0 -4,-4 4,4 0 0 0 -4,4 4,4 0 0 0 4,4 4,4 0 0 0 4,-4 z"/>
 <path style="fill:#ffffff" d="M 47.86,30 A 16,16 0 0 0 42.07,19.6016 C 41.42,19.8448 40.73,20 40,20 37.484,20 35.32,18.411 34.434,16.1954 A 16,16 0 0 0 32,16 16,16 0 0 0 25.792,17.254 l 3.043,5.2734 a 10,10 0 0 1 3.164,-0.528 10,10 0 0 1 9.789,8 l 6.0704,0 z m -0.004,4 -6.0586,0 a 10,10 0 0 1 -9.7968,8 10,10 0 0 1 -3.164,-0.52344 l -3.0352,5.2578 a 16,16 0 0 0 6.198,1.266 16,16 0 0 0 2.442,-0.21 c 0.888,-2.208 3.048,-3.79 5.558,-3.79 0.73222,0 1.42684,0.15346 2.0782,0.39844 a 16,16 0 0 0 5.778,-10.398 z M 44,14 a 4,4 0 0 0 -4,-4 4,4 0 0 0 -4,4 4,4 0 0 0 4,4 4,4 0 0 0 4,-4 z m 0,36 a 4,4 0 0 0 -4,-4 4,4 0 0 0 -4,4 4,4 0 0 0 4,4 4,4 0 0 0 4,-4 z M 25.376,24.528 22.34,19.2696 a 16,16 0 0 0 -5.836,8.8244 c 0.9179,1.05526 1.4961,2.4126 1.4961,3.9062 0,1.49176 -0.57644,2.8476 -1.49218,3.9024 a 16,16 0 0 0 5.8282,8.836 l 3.04,-5.262 a 10,10 0 0 1 -3.376,-7.476 10,10 0 0 1 3.376,-7.472 z M 16,32 a 4,4 0 0 0 -4,-4 4,4 0 0 0 -4,4 4,4 0 0 0 4,4 4,4 0 0 0 4,-4 z"/>
 <path style="opacity:0.2;fill:#ffffff" d="M 31.998047 4 A 28 28 0 0 0 4 32 A 28 28 0 0 0 4.0175781 32.492188 A 28 28 0 0 1 31.998047 5 L 32 5 A 28 28 0 0 1 59.972656 32.488281 A 28 28 0 0 0 59.998047 32 A 28 28 0 0 0 32 4 L 31.998047 4 z"/>
</svg>
